resources/transaction_deposit.svg

<svg width="44" height="44" viewBox="0 0 44 44" fill="none" xmlns="http://www.w3.org/2000/svg">
    <g filter="url(#filter0_d)">
        <path d="M22 44C34.1503 44 44 34.1503 44 22C44 9.84974 34.1503 0 22 0C9.84974 0 0 9.84974 0 22C0 34.1503 9.84974 44 22 44Z" fill="#F5F7FA"/>
    </g>
    <path d="M22 32C27.5228 32 32 27.5228 32 22C32 16.4772 27.5228 12 22 12C16.4772 12 12 16.4772 12 22C12 27.5228 16.4772 32 22 32Z" stroke="#BCBEC3" stroke-linecap="round" stroke-linejoin="round"/>
    <path fill-rule="evenodd" clip-rule="evenodd" d="M21.5 25.2929V18.5C21.5 18.2239 21.7239 18 22 18C22.2762 18 22.5 18.2239 22.5 18.5V25.2929L25.2929 22.5C25.4882 22.3047 25.8048 22.3047 26 22.5C26.1953 22.6953 26.1953 23.0118 26 23.2071L22.3536 26.8536C22.1583 27.0488 21.8417 27.0488 21.6465 26.8536L18 23.2071C17.8048 23.0118 17.8048 22.6953 18 22.5C18.1953 22.3047 18.5119 22.3047 18.7071 22.5L21.5 25.2929Z" fill="#BCBEC3"/>
    <defs>
        <filter id="filter0_d" x="-8" y="-1" width="60" height="60" filterUnits="userSpaceOnUse" color-interpolation-filters="sRGB">
            <feFlood flood-opacity="0" result="BackgroundImageFix"/>
            <feColorMatrix in="SourceAlpha" type="matrix" values="0 0 0 0 0 0 0 0 0 0 0 0 0 0 0 0 0 0 127 0"/>
            <feOffset dy="7"/>
            <feGaussianBlur stdDeviation="4"/>
            <feColorMatrix type="matrix" values="0 0 0 0 0.961984 0 0 0 0 0.966827 0 0 0 0 0.978578 0 0 0 0.138247 0"/>
            <feBlend mode="normal" in2="BackgroundImageFix" result="effect1_dropShadow"/>
            <feBlend mode="normal" in="SourceGraphic" in2="effect1_dropShadow" result="shape"/>
        </filter>
    </defs>
</svg>

<svg width="44" height="44" fill="none" xmlns="http://www.w3.org/2000/svg"><g filter="url(#a)"><path d="M22 44c12.15 0 22-9.85 22-22S34.15 0 22 0 0 9.85 0 22s9.85 22 22 22z" fill="#F5F7FA"/></g><path d="M22 32c5.523 0 10-4.477 10-10s-4.477-10-10-10-10 4.477-10 10 4.477 10 10 10z" stroke="#BCBEC3" stroke-linecap="round" stroke-linejoin="round"/><path fill-rule="evenodd" clip-rule="evenodd" d="M21.5 25.293V18.5a.5.5 0 0 1 1 0v6.793l2.793-2.793a.5.5 0 1 1 .707.707l-3.646 3.647a.5.5 0 0 1-.707 0L18 23.207a.5.5 0 0 1 .707-.707l2.793 2.793z" fill="#BCBEC3"/><defs><filter id="a" x="-8" y="-1" width="60" height="60" filterUnits="userSpaceOnUse" color-interpolation-filters="sRGB"><feFlood flood-opacity="0" result="BackgroundImageFix"/><feColorMatrix in="SourceAlpha" values="0 0 0 0 0 0 0 0 0 0 0 0 0 0 0 0 0 0 127 0"/><feOffset dy="7"/><feGaussianBlur stdDeviation="4"/><feColorMatrix values="0 0 0 0 0.961984 0 0 0 0 0.966827 0 0 0 0 0.978578 0 0 0 0.138247 0"/><feBlend in2="BackgroundImageFix" result="effect1_dropShadow"/><feBlend in="SourceGraphic" in2="effect1_dropShadow" result="shape"/></filter></defs></svg>
